X:1
T:Similabo eum viro sapienti - Marenzio
T:#
%%score [ 1 2 3 4 ]
L:1/8
Q:1/4=200
M:none
K:F
V:1 treble nm="Soprano" snm="S"
V:2 treble nm="Alto" snm="A"
V:3 treble-8 nm="Tenor" snm="T"
V:4 bass nm="Bass" snm="B"
V:1
"^Similabo eum viro sapienti""^Luca Marenzio\n(1556-1599)" G16 | E8 A8- | A4 F4 A8 | G4 c8 A4 | %4
w: Si-|mi- la\-|* bo e-|um vi- ro|
 c8 A4 B4- |[M:4/2] (B2 A2 A2 GF G8) | c4 A8 F4 | (B8 A6 GF | G8) G8 | z4 c8 A4- | A4 d8 A4 | %11
w: sa- pi- en\-||ti, sa- pi-|en\- * * *|* ti,|si- mi\-|* la- bo|
 B4 F4 B8 | A4 F4 A4 (B4- | B2 A2 A2 GF G8 | A6 B2 c8) | (F6 G2 A8- | A16) | z4 c8 A4 | d4 B4 d8 | %19
w: e- um vi-|ro sa- pi- en\-|||ti, * *||si- mi-|la- bo e-|
 c8 c8 | A4 B4 A4 (B4- | B2 A2 A2 GF G8) | A8 z4 A4- | A4 A4 A8 | G16 | z4 c4 A4 (d4- | %26
w: um vi-|ro sa- pi- en\-||ti, sa-|* pi- en-|ti,|si- mi- la\-|
 d4 c2 B2 A2 B2 c2 A2 | B2 c2 d2 c2 B2 A2 G2 F2 | E4) E4 G8 | C4 (E8 F4) | (E6 D2 E2 F2 G4- | %31
w: ||* bo e-|um sa\- *||
 G4) E4 (c6 B2 | A2 G2 F2 E2 F8) | E8 z4 G4- | G4 G4 G4 G4 | A8 G8 | (C2 D2 E2 F2 G2 E2 A4- | %37
w: * pi- en\- *||ti, qui|* ae- di- fi-|ca- vit|do\- * * * * * *|
 A4 G2 F2 G4) G4 | G8 E8 | z4 c6 A2 G4 | C4 c6 A2 G4 | C4 c6 A2 G4 | (B2 AG F2 G2 A8) | z4 c8 c4 | %44
w: * * * * mum|su- am|su- pra pe-|tram, su- pra pe-|tram, su- pra pe-|tram, * * * * *|qui ae-|
 c4 c4 d8 | c4 (F2 G2 A2 B2 c4) | B4 (G6 A2 B2 G2 | A16) | A8 z4 c4- | c2 A2 G4 C4 c4- | %50
w: di- fi- ca-|vit do\- * * * *|mum su\- * * *||am su\-|* pra pe- tram, su\-|
 c2 A2 G4 (F2 G2 A2 B2) | c8 z4 G4- | G4 G4 G4 G4 | A8 G4 (E2 D2 | E2 F2 G4) E8 | E16 | %56
w: * pra pe- tram, * * *|* qui|* ae- di- fi-|ca- vit do\- *|* * * mum|su-|
 E4 (c6 B2 A2 G2 |[Q:1/4=198] F4)[Q:1/4=195] E4[Q:1/4=192] A8 | %58
w: am, do\- * * *|* mum su-|
[Q:1/4=186] D8[Q:1/4=182] (G6[Q:1/4=180] A2 |[Q:1/4=178] B4)[Q:1/4=175] G4[Q:1/4=172] G8 | %60
w: am su\- *|* pra pe-|
[Q:1/4=170] E16 |] %61
w: tram.|
V:2
 z8 C8- | C8 A,8 | D12 A,4 | C8 F,4 F4 | E4 F8 D4 |[M:4/2] (E4 F8 E2 D2 | E2 C2 F6 E2 D2 C2 | %7
w: Si\-|* mi-|la- bo|e- um vi-|ro sa- pi-|en\- * * *||
 B,2 G,2 G6 F2 F4- | F4 E2 D2 E8) | E16 | F16 | D8 D4 F4 | (F12 E2 D2 | E2 C2 F6 ED E4) | %14
w: ||ti,|vi-|ro sa- pi-|en\- * *||
 F4 C8 A,4 | D4 F4 D8 | (C6 B,2 A,2 B,2 C4) | A,8 C8 | z4 F8 F4- | F4 (A6 G2 F4-) | %20
w: ti, si- mi-|la- bo e-|um * * * *|vi- ro|sa- pi\-|* en\- * *|
 (F2 E2 D2 E2 F2 D2 G4- | G2 F2 F6 ED E4) | (F6 ED C8) | z4 (F6 E2 D2 C2 | =B,4) C8 B,4 | %25
w: ||ti, * * *|sa\- * * *|* pi- en-|
 (C2 _B,2 A,2 G,2 A,8) | z4 C8 A,4 | D4 B,4 D8 | C8 z4 E4- | E4 A,4 C8 | C8 (C6 D2 | %31
w: ti, * * * *|si- mi-|la- bo e-|um vi\-|* ro sa-|pi- en\- *|
 E2 F2 G2 F2 E6 D2) | C16 | C8 z4 E4- | E4 E4 E4 E4 | F8 E4 (C2 D2) | (E2 F2 G4) E8 | F8 E8- | %38
w: ||ti, qui|* ae- di- fi-|ca- vit do\- *|* * * mum|su- am,|
 E8 z4 C4- | C2 A,2 G,4 (C2 D2 E2 F2 | E8) z4 E4- | E4 E4 E4 E4 | F16 | E4 (C2 D2 E2 F2 G4) | %44
w: * su\-|* pra pe- tram, * * *|* qui|* ae- di- fi-|ca-|vit do\- * * * *|
 A8 F8- | F16 | (D6 C2 B,8) | z4 F6 D2 C4 | (F,6 G,2 A,8) | z4 E8 E4 | E4 E4 F8 | %51
w: mum su\-||am * *|su- pra pe-|tram, * *|qui ae-|di- fi- ca-|
 E4 (A,2 B,2 C2 D2 E2 C2 | D8) E8 | F8 E8 | z4 C6 A,2 G,4 | C4 C6 A,2 G,4 | (A,6 B,2 C8- | C16) | %58
w: vit do\- * * * * *|* mum|su- am|su- pra pe-|tram, su- pra pe-|tram, * *||
 z4 G8 E4 | (D4 C8 =B,4) | C16 |] %61
w: su- pra|pe\- * *|tram.|
V:3
 z16 | z16 | z16 | z16 | z16 |[M:4/2][K:treble-8] c16 | A8 d8- | d4 B4 d8 | c8 z4 c4- | c4 A4 c8 | %10
w: |||||Si-|mi- la\-|* bo e-|um vi\-|* ro sa-|
 A4 (B6 A2 A2 GF | G2 D2 F6 E2 D2 E2 | F2 G2 A8 G2 F2) | c16 | c6 B2 (A2 B2 c2 A2) | %15
w: pi- en\- * * * *|||ti,|sa- pi- en\- * * *|
 (B2 A2 d8 c2 B2) | A4 c8 A4 | d4 c4 (A2 B2 c2 A2 | B2 c2 d6 c2 B4) | A4 c8 A4 | d12 B4 | d8 c8 | %22
w: |ti, si- mi-|la- bo e\- * * *||um, si- mi-|la- bo|e- um|
 z4 c8 A4 | d8 d4 (f4- | f2 e2 e2 dc d6 e2) | (f6 ed c2 F2 f4- | f4 e2 d2 c4) F4 | z8 G8- | G8 E8 | %29
w: vi- ro|sa- pi- en\-|||* * * * ti,|si\-|* mi-|
 A4 c4 A8 | G4 G8 E4 | G8 G4 (c4- | c2 B2 A2 G2 A8) | G16- | G8 z8 | z8 c8- | c4 c4 c4 c4 | %37
w: la- bo e-|um vi- ro|sa- pi- en\-||ti,||qui|* ae- di- fi-|
 d8 c4 (C2 D2 | E2 F2 G2 E2 A4) G4 | c4 C4 z4 c4- | c2 A2 G4 C4 c4- | c4 c4 c4 c4 | %42
w: ca- vit do\- *|* * * * * mum|su- am su\-|* pra pe- tram, qui|* ae- di- fi-|
 (F2 E2 D2 E2 F2 G2 A2 B2 | c8) G4 c4- | c4 A8 (B4- | B2 AG A2 B2 c4) A4 | z4 (B6 c2 d2 e2 | %47
w: ca\- * * * * * * *|* vit do\-|* mum su\-|* * * * * * am,|su\- * * *|
 f4) c4 z4 f4- | f2 d2 c8 F4 | c12 c4 | c4 c4 d8 | c4 (F2 G2 A2 B2 c4- | c4) =B4 c8 | F8 z4 c4- | %54
w: * am, su\-|* pra pe- tram,|qui ae-|di- fi- ca-|vit do\- * * * *|* mum su-|am su\-|
 c2 A2 G4 C4 c4- | c2 A2 G4 C4 c4- | (c2 B2 A2 G2 F4) E4 | (A6 GF E2 D2 E2 F2 | G8) D4 G4- | %59
w: * pra pe- tram, su\-|* pra pe- tram, do\-|* * * * * mum|su\- * * * * * *|* am su\-|
 G4 E4 D8 | C16 |] %61
w: * pra pe-|tram.|
V:4
 z16 | z16 | z16 | z16 | z16 |[M:4/2] z16 | z16 | z16 | C,16 | A,,16 | D,16 | B,,16 | D,16 | C,16 | %14
w: ||||||||Si-|mi-|la-|bo|e-|um|
 F,16 | D,16 | F,16 | F,16 | B,,16 | F,16 | z16 | z16 | F,16 | D,16 | G,16 | F,16 | A,16 | G,16 | %28
w: vi-|ro|sa-|pi-|en-|ti,|||si-|mi-|la-|bo|e-|um|
 C,16 | A,,16 | C,16 | C,16 | F,,16 | C,16- | C,16 | z16 | z16 | z16 | C,16 | C,16 | C,16 | C,16 | %42
w: vi-|ro|sa-|pi-|en-|ti,|||||qui|ae-|di-|fi-|
 D,16 | C,16 | F,16 | F,16 | G,16 | F,16- | F,16 | z16 | z16 | z16 | z16 | z16 | C,16- | C,16 | %56
w: ca-|vit|do-|mum|su-|am|||||||su\-||
 A,,16- | A,,16 | G,,16- | G,,16 | C,16 |] %61
w: pra||pe\-||tram.|

